app/assets/images/payment_icons/bancomat_pay.svg

<svg aria-labelledby="pi-bancomat_pay" fill="none" height="24" viewBox="0 0 38 24" width="38" xmlns="http://www.w3.org/2000/svg">
    <title id="pi-bancomat_pay">Bancomat Pay</title>
	<g clip-path="url(#clip0_1_3141)">
		<path d="M35 0H3C1.3 0 0 1.3 0 3V21C0 22.7 1.4 24 3 24H35C36.7 24 38 22.7 38 21V3C38 1.3 36.6 0 35 0Z" fill="black" opacity="0.07"/>
		<path d="M35 1C36.1 1 37 1.9 37 3V21C37 22.1 36.1 23 35 23H3C1.9 23 1 22.1 1 21V3C1 1.9 1.9 1 3 1H35Z" fill="white"/>
		<path d="M26.6829 11.2389L19.7556 4.31393C19.5526 4.11281 19.2786 4 18.993 4C18.7074 4 18.4333 4.11281 18.2303 4.31393L11.3171 11.2389C11.2166 11.3385 11.1369 11.4571 11.0825 11.5877C11.028 11.7183 11 11.8585 11 12C11 12.1415 11.028 12.2817 11.0825 12.4123C11.1369 12.5429 11.2166 12.6615 11.3171 12.7611L18.235 19.6861C18.438 19.8872 18.7121 20 18.9977 20C19.2833 20 19.5573 19.8872 19.7603 19.6861L26.6829 12.7611C26.7834 12.6615 26.8631 12.5429 26.9176 12.4123C26.972 12.2817 27 12.1415 27 12C27 11.8585 26.972 11.7183 26.9176 11.5877C26.8631 11.4571 26.7834 11.3385 26.6829 11.2389ZM21.9615 13.6584C21.7831 15.1101 20.7318 15.8101 19.0141 15.8101H15.5364L15.7382 14.194H19.1737C19.6148 14.194 19.8542 13.9262 19.9105 13.4564C19.915 13.408 19.915 13.3592 19.9105 13.3108H21.9896C21.9896 13.4094 21.9615 13.5363 21.9474 13.6584H21.9615ZM23.3695 12.7188H15.8884L16.0667 11.2624H19.4224C19.8917 11.2624 20.0654 10.9194 20.117 10.5107C20.1686 10.102 20.117 9.84358 19.5914 9.84358H16.2403L16.4422 8.16636H19.8683C21.8207 8.16636 22.3463 8.99792 22.2149 10.1396C22.1802 10.539 22.0498 10.9241 21.8347 11.2624H22.0366C22.223 11.2613 22.4075 11.3004 22.5775 11.3769C22.7475 11.4535 22.8991 11.5658 23.022 11.7061C23.1448 11.8465 23.2361 12.0117 23.2896 12.1905C23.343 12.3692 23.3575 12.5574 23.3319 12.7423L23.3695 12.7188Z" fill="#002D73"/>
	</g>
	<defs>
		<clipPath id="pi-bancomat_pay">
			<rect fill="white" height="24" width="38"/>
		</clipPath>
	</defs>
</svg>

<svg aria-labelledby="pi-bancomat_pay" fill="none" height="24" viewBox="0 0 38 24" width="38" xmlns="http://www.w3.org/2000/svg"><title id="pi-bancomat_pay">Bancomat Pay</title><g clip-path="url(#clip0_1_3141)"><path d="M35 0H3C1.3 0 0 1.3 0 3v18c0 1.7 1.4 3 3 3h32c1.7 0 3-1.3 3-3V3c0-1.7-1.4-3-3-3z" fill="#000" opacity=".07"/><path d="M35 1c1.1 0 2 .9 2 2v18c0 1.1-.9 2-2 2H3c-1.1 0-2-.9-2-2V3c0-1.1.9-2 2-2h32z" fill="#fff"/><path d="M26.683 11.239l-6.927-6.925a1.083 1.083 0 00-1.526 0l-6.913 6.925a1.07 1.07 0 000 1.522l6.918 6.925a1.084 1.084 0 001.525 0l6.923-6.925a1.072 1.072 0 000-1.522zm-4.721 2.42c-.179 1.451-1.23 2.151-2.948 2.151h-3.478l.202-1.616h3.436c.44 0 .68-.268.736-.738a.787.787 0 000-.145h2.08c0 .098-.028.225-.043.347h.015zm1.407-.94h-7.48l.178-1.457h3.355c.47 0 .643-.343.695-.751.052-.409 0-.667-.526-.667h-3.35l.201-1.678h3.426c1.953 0 2.478.832 2.347 1.974-.035.399-.165.784-.38 1.122h.202a1.3 1.3 0 011.295 1.48l.037-.023z" fill="#002D73"/></g><defs><clipPath id="pi-bancomat_pay"><path fill="#fff" d="M0 0h38v24H0z"/></clipPath></defs></svg>
